X:1
T:The Keewanaw Light
M:3/4
L:1/4
K:C
 e| g g e| d e/2 e d/2| c e/2 d3/2| c/2 A3/2 A/2A/2| G c c/2| c/2-|\
 c2 G/2G/2| e g3/2 e/2| d3| z2 e/2f/2| g g e/2| d/2-| d e e/2d/2| c e/2 d3/2|\
 c A A/2A/2| G c/2 c3/2| e/2- g3/2 e| d e d/2 c/2-| c3| z2 c/2c/2|\
 c3/2 f/2 f| f2 c/2c/2| e g3/2 f/2| e z c/2c/2| c g/2 g3/2| g2 e| c d3/2 e/2|\
 d3| z2 e/2f/2| g3/2 g/2 e| d e d| c/2 e3/2 d| c2 A/2A/2| G e/2 c3/2|\
 e g/2 g e/2| d e3/2 d/2| c3| z2||
